src/components/Icon/icons/chat.svg

<svg xmlns="http://www.w3.org/2000/svg" width="100%" height="100%" viewBox="0 0 20 20" fill="none">
  <g clip-path="url(#clip0_124_1326)">
    <path d="M6.24997 19.0801C5.40997 19.0801 4.57997 18.8801 3.82997 18.5001L2.02997 18.8301C1.78997 18.8801 1.53997 18.8001 1.35997 18.6201C1.18997 18.4501 1.10997 18.2001 1.14997 17.9501L1.48997 16.1501C1.00997 15.1901 0.819974 14.1001 0.959974 13.0401C1.10997 11.8801 1.64997 10.7901 2.47997 9.96007C3.29997 9.13007 4.39997 8.60007 5.54997 8.44007C6.70997 8.29007 7.89997 8.52007 8.90997 9.11007C9.91997 9.69007 10.72 10.6101 11.17 11.6901C11.62 12.7701 11.7 13.9801 11.39 15.1101C11.09 16.2401 10.41 17.2501 9.48997 17.9601C8.55997 18.6701 7.40997 19.0601 6.23997 19.0601L6.24997 19.0801ZM3.95997 16.9701C4.08997 16.9701 4.21997 17.0001 4.33997 17.0701C5.64997 17.8201 7.38997 17.7101 8.58997 16.7901C9.25997 16.2801 9.73997 15.5501 9.95997 14.7401C10.18 13.9301 10.12 13.0601 9.79997 12.2801C9.47997 11.5001 8.89997 10.8501 8.17997 10.4301C7.44997 10.0101 6.59997 9.84007 5.75997 9.95007C4.92997 10.0601 4.13997 10.4501 3.54997 11.0401C2.95997 11.6301 2.56997 12.4201 2.45997 13.2501C2.34997 14.0801 2.51997 14.9401 2.93997 15.6701C3.02997 15.8301 3.05997 16.0101 3.02997 16.1801L2.84997 17.1701L3.83997 16.9901C3.83997 16.9901 3.92997 16.9801 3.97997 16.9801L3.95997 16.9701Z" fill="currentColor"/>
    <path d="M18.6201 5.74998C18.2401 4.72998 17.6301 3.78998 16.8501 3.03998C16.0701 2.27998 15.1201 1.68998 14.1001 1.33998C13.0801 0.979985 11.9601 0.859985 10.8801 0.969985C9.80009 1.07998 8.74009 1.43998 7.81009 2.00998C6.88009 2.56998 6.08009 3.34999 5.48009 4.24998C4.89009 5.12998 4.50009 6.14998 4.34009 7.19998C4.67009 7.09998 5.01009 7.01998 5.36009 6.97998C5.55009 6.95998 5.74009 6.94999 5.93009 6.93998C6.09009 6.27998 6.37009 5.63999 6.74009 5.06998C7.22009 4.34998 7.86009 3.72998 8.60009 3.27998C9.34009 2.82998 10.1901 2.53998 11.0501 2.44998C11.9101 2.35998 12.8001 2.44998 13.6201 2.73998C14.4401 3.01998 15.2001 3.48998 15.8201 4.09998C16.4401 4.69999 16.9301 5.44999 17.2301 6.25998C17.5301 7.06998 17.6501 7.95998 17.5801 8.81998C17.5101 9.67998 17.2401 10.54 16.8101 11.28C16.7201 11.44 16.6901 11.62 16.7201 11.79L17.0801 13.71L15.1501 13.35C14.9701 13.32 14.7901 13.35 14.6401 13.44C14.1501 13.72 13.6201 13.91 13.0701 14.04C13.0501 14.53 12.9901 15.02 12.8701 15.5C12.8601 15.55 12.8301 15.59 12.8201 15.64C12.8401 15.64 12.8601 15.64 12.8801 15.64C13.6801 15.51 14.4401 15.25 15.1501 14.88L17.8901 15.39C18.1301 15.43 18.3801 15.36 18.5601 15.18C18.7301 15.01 18.8101 14.76 18.7701 14.51L18.2601 11.77C18.7201 10.89 19.0101 9.91998 19.0901 8.92999C19.1801 7.84999 19.0301 6.73998 18.6501 5.71998L18.6201 5.74998Z" fill="currentColor"/>
  </g>
  <defs>
    <clipPath id="clip0_124_1326">
      <rect width="20" height="20" fill="white"/>
    </clipPath>
  </defs>
</svg>

<svg xmlns="http://www.w3.org/2000/svg" fill="none" viewBox="0 0 20 20"><g fill="currentColor" clip-path="url(#a)"><path d="M6.25 19.08c-.84 0-1.67-.2-2.42-.58l-1.8.33a.74.74 0 0 1-.67-.21.78.78 0 0 1-.21-.67l.34-1.8a5.4 5.4 0 0 1-.53-3.11 5.344 5.344 0 0 1 4.59-4.6c1.16-.15 2.35.08 3.36.67 1.01.58 1.81 1.5 2.26 2.58s.53 2.29.22 3.42c-.3 1.13-.98 2.14-1.9 2.85-.93.71-2.08 1.1-3.25 1.1zm-2.29-2.11c.13 0 .26.03.38.1 1.31.75 3.05.64 4.25-.28.67-.51 1.15-1.24 1.37-2.05s.16-1.68-.16-2.46-.9-1.43-1.62-1.85a3.85 3.85 0 0 0-2.42-.48c-.83.11-1.62.5-2.21 1.09s-.98 1.38-1.09 2.21.06 1.69.48 2.42c.09.16.12.34.09.51l-.18.99.99-.18s.09-.01.14-.01z"/><path d="M18.62 5.75a7.3 7.3 0 0 0-1.77-2.71 7.425 7.425 0 0 0-9.04-1.03c-.93.56-1.73 1.34-2.33 2.24-.59.88-.98 1.9-1.14 2.95.33-.1.67-.18 1.02-.22.19-.02.38-.03.57-.04.16-.66.44-1.3.81-1.87.48-.72 1.12-1.34 1.86-1.79a5.95 5.95 0 0 1 5.02-.54c.82.28 1.58.75 2.2 1.36.62.6 1.11 1.35 1.41 2.16s.42 1.7.35 2.56-.34 1.72-.77 2.46c-.09.16-.12.34-.09.51l.36 1.92-1.93-.36c-.18-.03-.36 0-.51.09-.49.28-1.02.47-1.57.6-.02.49-.08.98-.2 1.46-.01.05-.04.09-.05.14h.06c.8-.13 1.56-.39 2.27-.76l2.74.51c.24.04.49-.03.67-.21.17-.17.25-.42.21-.67l-.51-2.74c.46-.88.75-1.85.83-2.84.09-1.08-.06-2.19-.44-3.21z"/></g><defs><clipPath id="a"><path fill="#fff" d="M0 0h20v20H0z"/></clipPath></defs></svg>
